X: 578
T: Gan liu
L: 1/8
M: 2/4
K: F
A cd2 [I:setbarnb 1]| 
f> f d c | 
d c A d | 
c4 | 
A cd2 | 
fc2A | 
c2A c | 
G4 | 
c2G2 | 
cG2A | 
c B c d | 
F4 | 
D FG2 | 
cF2D | 
C C D F | 
C4 | 
G3A | 
G4 | 
c> B c d | 
F4 | 
D FG2 | 
cF2D | 
C C D F | 
C4 |]

@@@ Tune index: 9452
